media/ico/ico_communicate.svg

<svg width="96" height="96" viewBox="0 0 96 96" fill="none" xmlns="http://www.w3.org/2000/svg">
<path d="M68 12C63.58 12 60 15.58 60 20V48L68 40H84C88.42 40 92 36.42 92 32V20C92 15.58 88.42 12 84 12H68ZM38 20C30.3154 20 24 26.3154 24 34C24 41.6846 30.3154 48 38 48C45.6846 48 52 41.6846 52 34C52 26.3154 45.6846 20 38 20ZM68 20H84V32H68V20ZM38 28C41.3611 28 44 30.6389 44 34C44 37.3611 41.3611 40 38 40C34.6389 40 32 37.3611 32 34C32 30.6389 34.6389 28 38 28ZM38 56C32.0516 56 25.2063 57.6866 19.3984 60.5078C16.4945 61.9184 13.8569 63.6081 11.7578 65.7578C9.65873 67.9075 8 70.7109 8 74V84H68V80V74C68 70.7109 66.3413 67.9075 64.2422 65.7578C62.1431 63.6081 59.5055 61.9184 56.6016 60.5078C50.7937 57.6866 43.9484 56 38 56ZM38 64C42.3196 64 48.4764 65.4564 53.1016 67.7031C55.4141 68.8265 57.3441 70.1439 58.5156 71.3438C59.6872 72.5435 60 73.4251 60 74V76H16V74C16 73.4251 16.3128 72.5435 17.4844 71.3438C18.6559 70.144 20.5859 68.8265 22.8984 67.7031C27.5236 65.4564 33.6804 64 38 64Z" fill="#4F4AFF"/>
</svg>

<?xml version="1.0" encoding="utf-8"?>
<!-- Generator: Adobe Illustrator 28.0.0, SVG Export Plug-In . SVG Version: 6.00 Build 0)  -->
<svg version="1.1" id="Layer_1" xmlns="http://www.w3.org/2000/svg" xmlns:xlink="http://www.w3.org/1999/xlink" x="0px" y="0px"
	 viewBox="0 0 96 96" style="enable-background:new 0 0 96 96;" xml:space="preserve">
<style type="text/css">
	.st0{fill:#B3B3B3;}
</style>
<path class="st0" d="M68,12c-4.4,0-8,3.6-8,8v28l8-8h16c4.4,0,8-3.6,8-8V20c0-4.4-3.6-8-8-8H68z M38,20c-7.7,0-14,6.3-14,14
	s6.3,14,14,14s14-6.3,14-14S45.7,20,38,20z M68,20h16v12H68V20z M38,28c3.4,0,6,2.6,6,6s-2.6,6-6,6s-6-2.6-6-6S34.6,28,38,28z
	 M38,56c-5.9,0-12.8,1.7-18.6,4.5c-2.9,1.4-5.5,3.1-7.6,5.2C9.7,67.9,8,70.7,8,74v10h60v-4v-6c0-3.3-1.7-6.1-3.8-8.2
	c-2.1-2.1-4.7-3.8-7.6-5.2C50.8,57.7,43.9,56,38,56z M38,64c4.3,0,10.5,1.5,15.1,3.7c2.3,1.1,4.2,2.4,5.4,3.6
	c1.2,1.2,1.5,2.1,1.5,2.7v2H16v-2c0-0.6,0.3-1.5,1.5-2.7c1.2-1.2,3.1-2.5,5.4-3.6C27.5,65.5,33.7,64,38,64z"/>
</svg>
